X:9
T:Polska från Småland
T:Svenska Folkdansar H2 nr 9
O:Småland
B:Traditioner av Svenska Folkdansar Häfte 2, nr 9
R:Polska
Z:Nils L
U:V=wedge
U:t=tenuto
M:3/4
L:1/8
K:Dm
A2 ^cd ec | f2 fa fd | ^c2 cd eg | Vf2 td4 ::
e2 fe fg | a2 gb a2 | e2 fe fd | g2 f2 e2 |
A2 ^cd ec | f2 fa fd | ^c2 cd eg | Vf2 td4 :|

